X:8
T: Der Brautmoerder
N: A0014
O: Europa, Mitteleuropa, Deutschland
R: Romanze, Ballade, Lied
M: 4/4
L: 1/8
K: E
B,B,B, | E3F=G2F2 | E4z
BBB | A3AB2A2 | =G4z
=ddd | =G3G=c2B2 | A4z
=DDD | =GABAG2F2 | E4z

